pieces/cburnett_purple/kb.svg

<svg xmlns="http://www.w3.org/2000/svg" width="45" height="45"><g fill="none" fill-rule="evenodd" stroke="#29113C" stroke-width="1.5" stroke-linecap="round" stroke-linejoin="round"><path d="M22.5 11.63V6" stroke-linejoin="miter"/><path d="M22.5 25s4.5-7.5 3-10.5c0 0-1-2.5-3-2.5s-3 2.5-3 2.5c-1.5 3 3 10.5 3 10.5" fill="#29113C" stroke-linecap="butt" stroke-linejoin="miter"/><path d="M11.5 37c5.5 3.5 15.5 3.5 21 0v-7s9-4.5 6-10.5c-4-6.5-13.5-3.5-16 4V27v-3.5c-3.5-7.5-13-10.5-16-4-3 6 5 10 5 10V37z" fill="#29113C"/><path d="M20 8h5" stroke-linejoin="miter"/><path d="M32 29.5s8.5-4 6.03-9.65C34.15 14 25 18 22.5 24.5l.01 2.1-.01-2.1C20 18 9.906 14 6.997 19.85c-2.497 5.65 4.853 9 4.853 9" stroke="#A76390"/><path d="M11.5 30c5.5-3 15.5-3 21 0m-21 3.5c5.5-3 15.5-3 21 0m-21 3.5c5.5-3 15.5-3 21 0" stroke="#A76390"/></g></svg>

<svg width="45" height="45" viewBox="0 0 45 45" fill="none" xmlns="http://www.w3.org/2000/svg">
<path d="M22.5 11.63V6" stroke="#29113C" stroke-width="1.5" stroke-linecap="round"/>
<path fill-rule="evenodd" clip-rule="evenodd" d="M22.5 25C22.5 25 27 17.5 25.5 14.5C25.5 14.5 24.5 12 22.5 12C20.5 12 19.5 14.5 19.5 14.5C18 17.5 22.5 25 22.5 25Z" fill="#29113C" stroke="#29113C" stroke-width="1.5"/>
<path fill-rule="evenodd" clip-rule="evenodd" d="M11.5 37C17 40.5 27 40.5 32.5 37V30C32.5 30 41.5 25.5 38.5 19.5C34.5 13 25 16 22.5 23.5V27V23.5C19 16 9.5 13 6.5 19.5C3.5 25.5 11.5 29.5 11.5 29.5V37Z" fill="#29113C" stroke="#29113C" stroke-width="1.5" stroke-linecap="round" stroke-linejoin="round"/>
<path d="M20 8H25" stroke="#29113C" stroke-width="1.5" stroke-linecap="round"/>
<path d="M32 29.5C32 29.5 40.5 25.5 38.03 19.85C34.15 14 25 18 22.5 24.5L22.51 26.6L22.5 24.5C20 18 9.90602 14 6.99702 19.85C4.50002 25.5 11.85 28.85 11.85 28.85" stroke="#F0E9E9" stroke-width="1.5" stroke-linecap="round" stroke-linejoin="round"/>
<path d="M11.5 30C17 27 27 27 32.5 30M11.5 33.5C17 30.5 27 30.5 32.5 33.5M11.5 37C17 34 27 34 32.5 37" stroke="#F0E9E9" stroke-width="1.5" stroke-linecap="round" stroke-linejoin="round"/>
</svg>
